X: 6
T: The Whistling Postman
R: jig
M: 6/8
L: 1/8
K: Dmaj
e|:f3 edB|ABd BAF|DFA dfa|baf ede|
|faf edB|ABd BAF|DFA Bed|cBc d2e:|
|:f3 afd|gBd gfe|fef af/g/a|baf ede|
|faf edB|ABd BAF|DFA Bed|cBc d2e:|


Tune 587	Setting 13586

